X:2408
T:Gustavus Galloppe. JMY119
O:england
M:2/4
L:1/8
Q:200
S:J.Moore,Tyneside,1841.(84a)
R:Gallop
A:Northumbria
K:G
D|"Pia"GE/G/ BG/B/|dB/d/ gd|dccA|eddD|GD/G/ BG/B/|dB/d/ gB|dccA|G3:|
|:"Pia"B|d-ccA|e-ddB|d-ccA|eddD|"For"GD/G/ BG/B/|dB/d/gd|dccA|G3:|
|:"Solo"c|(dd^cd)|.b(b^ab)|.a(a^ga)|=g/f/g/a/"sic"d2B2|.d(d^cd)|.b(b^ab)
|aa^ga|g3:|]


